X:2
T:Sunny
C:Bobby Hebb
L:1/4
M:C
I:linebreak $
K:G
"Em" B B z2 |"Dm" z2"G7" g/e/d/B/ |"C" A G G/ A3/2 |"B7" B4 |$"Em" B B z2 |"Dm" z2"G7" g/e/d/B/ |
"C" A G G/ A3/2 |"B7" B2 B A |$"Em" B/G/ A G A/G/ |"Dm" B/G/ A"G7" G A |"C" B A G A |
"F7" B A G A |$"B7" B/ B3/2 B B | A2 G A |"Em" G/ E3/2 z2 |"A7" z4 |"Em" z4 |"A7" z4 :|$"Em" z4 |
"A7" z4 |"Em" z4 | z4 |]

